!!!COM: Bach, Johann Sebastian
!!!OPR: Das wohltemperirte Clavier, Band I
!!!XEN: The Well-Tempered Clavier, Volume I
!!!OTL: Prelude in B Minor
!!!OMV: Prelude XXIV
!!!SCT: BWV 869
!!!SCA: Thematisch-systematisches Verzeichnis der musikalischen Werke Johann Sebastian Bach: Bach-Werke-Verzeichnis (Schmieder)
!!!YOR: Bach Gesellschaft Edition xiv
!!!ENC: Walter Hewlett
!!!CDT: 1685/3//-1750/7/28/
!!!OCY: Deutschland
!!!YEC: Copyright (c) 1994, 2000 Center for Computer Assisted Research in the Humanities
!!!YEM: Rights to all derivative editions reserved
!!!YEN: United States of America
**kern
*k[f#c#]
*b:
*M4/4
*MM69
*>[A,B,B]
*>A
! Andante.
=1-
*^
*^	*
2r	4f#\	8BB/L
.	.	8C#/
.	2b\	8D/
.	.	8E/J
4cc#/	.	8F#\L
.	.	8G#\
[4ff#/	4a\	8A\
.	.	8B\J
=2	=2	=2
4ff#/]	4g#\	8c#\L
.	.	8B\
4ee/	2cc#\	8A#\
.	.	8F#\J
[2dd/	.	8B\L
.	.	8An\
.	8b\L	8Gn\
.	8a\J	8F#\J
=3	=3	=3
4dd/]	[2gn\	8E\L
.	.	8C#\
8cc#/L	.	8D\
8b/J	.	8E\J
4a#/	8g\L]	8F#/L
.	8f#\J	8FF#/
8b/L	[4e\	8GG#/
8cc#/J	.	8AA#/J
=4	=4	=4
4f#/	4e\]	8BB\L
.	.	8C#\
2b/	4d\	8D\
.	.	8E\J
.	4c#\	8F#\L
.	.	8G#\
4a/	[4f#\	8An\
.	.	8F#\J
=5	=5	=5
2g/	4f#\]	8B\L
.	.	8BB\
.	2e\	8C#\
.	.	8AA\J
2f#/	.	8D/L
.	.	8C#/
.	[4d\	8BB/
.	.	8AA/J
=6	=6	=6
4b/	4d\]	8GG\L
.	.	8F#\
4ee/	2g\	8E\
.	.	8D\J
4a/	.	8C#\L
.	.	8A\
[4dd/	4f#\	8B\
.	.	8F#\J
=7	=7	=7
4dd/]	2e\	8G\L
.	.	8E\
4cc#t/xx	.	8A\
.	.	8AA\J
16dd/LL	4f#\	8D\L
16cc#/	.	.
16b/	.	8E\
16a/JJ	.	.
[4dd/	4r	8F#\
.	.	8G\J
=8	=8	=8
4dd/]	4e\	8AA/L
.	.	8BB/
4cc#/	2a\	8C#/
.	.	8D/J
4b/	.	8E\L
.	.	8F#\
[4ee/	4g\	8G\
.	.	8A\J
=9	=9	=9
4ee/]	4f#\	8BB/L
.	.	8C#/
4dd/	2b\	8D/
.	.	8E/J
4cc#/	.	8F#\L
.	.	8G#\
[4ff#/	4a\	8A\
.	.	8B\J
=10	=10	=10
4ff#/]	4g#\	8c#\L
.	.	8B\
4ee#/	2cc#\	8c#\
.	.	8A\J
4ff#/	.	8d\L
.	.	8c#\
4gg#/	[4b\	8d\
.	.	8B\J
=11	=11	=11
4cc#/	4b\]	8E#\L
.	.	8c#\
2ff#/	4a\	8d\
.	.	8A\J
.	2g#\	8B\L
.	.	8G#\
4ee#T/xx	.	8c#\
.	.	8C#\J
=12	=12	=12
4ff#/	4a\	8F#\L
.	.	8En\
4r	2dd\	8F#\
.	.	8G#\J
4een/	.	8A\L
.	.	8B\
[4aa/	4cc#\	8c#\
.	.	8d\J
=13	=13	=13
4aa/]	4b\	8E\L
.	.	8F#\
4gg/	2ee\	8Gn\
.	.	8A\J
4ff#/	.	8B\L
.	.	8c#\
[4bb/	4dd\	8d\
.	.	8e\J
=14	=14	=14
4bb/]	4cc#\	8F#\L
.	.	8E\
4aa#/	[4ff#\	8F#\
.	.	8D\J
4.bb/	8ff#\L]	8G\L
.	8b\J	8F#\
.	[4ee\	8G\
16aan/LL	.	8E\J
16gg/JJ	.	.
=15	=15	=15
4.ff#/	8ee\L]	8A#\L
.	16dd\L	8F#\
.	16cc#\JJ	.
.	8dd\L	8B\
8gg/	8b\J	8E\J
4dd/	4b\	8F#/L
.	.	8E/
4cc#t/xx	4a#\	8F#/
.	.	8FF#/J
=16	=16	=16
8b/	4b\	4BB/
4gg/	.	.
.	4cc#\	4AA/
[8ff#/	.	.
8ff#/L]	4.dd\	2GGT/
16bb/L	.	.
16aa#/JJ	.	.
4bb/	.	.
.	[8ee\	.
=17	=17	=17
8aa#/L	8ee\L]	1FF#/
8bb/	8dd\	.
8ee/	8cc#\	.
8dd/J	8b\J	.
2cc#t/xx	2a#t\xx	.
=18:!!:	=18:!!:	=18:!!:
*>B	*	*
[2aan/	8r	8F#\L
.	8cc#\L	8Gn\
.	8ff#\	8A\
.	8ee\J	8F#\J
8aa/L]	2dd#\	8B\L
8ff#/	.	8A\
8bb/	.	8G\
8aa/J	.	8F#\J
=19	=19	=19
4gg/	4ee\	8E/L
.	.	8GG/
4ff#t/xx	4dd#\	8AA/
.	.	8BB/J
[2gg/	8ee\L	8EE/L
.	8b\	8FF#/
.	8ee\	8GG/
.	8ddn\J	8EE/J
=20	=20	=20
8gg/L]	2cc#\	8AA/L
8ee/	.	8GG/
8aa/	.	8FF#/
8gg/J	.	8EE/J
4ff#/	4dd\	8DD/L
.	.	8FF#/
4eeT/xx	4cc#\	8GG/
.	.	8AA/J
=21	=21	=21
[2ff#/	8dd\L	8DD/L
.	8a\	8E/
.	8b\	8D/
.	8cc#\J	8C#/J
8ff#/L]	[2dd\	8BB/L
8ff#/	.	8AA/
8gg#/	.	8GG#/
8aa/J	.	8FF#/J
=22	=22	=22
4bb/	8dd\L]	8EE#\L
.	8cc#\	8F#\
2aa/	8ff#\	8G#\
.	8ee\J	8A\J
.	8dd\L	8B\L
.	8cc#\J	8c#\
8ggn/L	[4b\	8d\
8ff#/J	.	8B\J
=23	=23	=23
8ee#/L	4b\]	8c#/L
8cc#/	.	8FF#/
8ff#/	[4a\	8GG#/
8een/J	.	8AA/J
[2dd/	8a\L]	8BB/L
.	8a\	8C#/
.	8g#\	8D/
.	8f#\J	8BB/J
=24	=24	=24
4dd/]	8e#\L	8C#/L
.	8f#\J	8D#/
8cc#/L	2g#\	8E#/
8b/J	.	8C#/J
8a/L	.	8F#\L
8b/J	.	8G#\
[4cc#/	8f#\L	8A\
.	8en\J	8F#\J
=25	=25	=25
4cc#/]	2d\	8B\L
.	.	8A\
2b/	.	8G#\
.	.	8F#\J
.	2c#\	8E#\L
.	.	8C#\
[4a/	.	8F#\
.	.	8En\J
=26	=26	=26
4a/]	[2B\	8D/L
.	.	8C#/
8g#/L	.	8D/
8f#/J	.	8BB/J
8e#/L	8B\L]	8C#/L
8dd/	8e#\	8BB/
8cc#/	8f#\	8AA/
8b/J	8g#\J	8BB/J
=27	=27	=27
4a/	8c#\	8C#/L
.	4f#\	8BB/
4g#t/xx	.	8C#/
.	8e#\	8CC#/J
4f#/	4f#\	8FF#/L
.	.	8C#/
4r	[4ccn\	8D#/
.	.	8E/J
=28	=28	=28
4dd#/	4cc\]	8F#\L
.	.	8A\
8ee/L	8b\L	8G\
8ff#/J	8a\J	8F#\J
8b/L	8g\L	8E\L
8cccn/	8dd#\	8F#\
8bb/	8ee\	8G\
8aa/J	8ff#\J	8A\J
=29	=29	=29
4gg/	8b\	8B\L
.	4ee\	8A\
4ff#t/xx	.	8B\
.	8dd#\	8BB\J
4ee/	4ee\	8E\L
.	.	8B\
[4bb-/	4r	8c#\
.	.	8d\J
=30	=30	=30
4bb-/]	4cc#\	8e\L
.	.	8G\
8aa/L	8dd\L	8F#\
8gg/J	8ee\J	8E\J
8ff#/L	8a\L	8D\L
8cc#/	8b-\	8E\
8dd/	8a\	8F#\
8ee/J	8g\J	8G\J
=31	=31	=31
8a/	4f#\	8A\L
4dd/	.	8G\
.	4e\	8A\
8cc#/	.	8AA\J
8f#/	4d\	8BB/L
4b/	.	8D/
.	4c#\	8F#/
8a/	.	8FF#/J
=32	=32	=32
8d/	4B\	8GG/L
4g/	.	8BB/J
.	4A\	[4D/
8f#/	.	.
4g#/	4B\	8D/L]
.	.	8D/
8a#t/Lxx	[4e\	8C#/
8b/J	.	8BB/J
=33	=33	=33
[2cc#/	8e\L]	8AA#/L
.	8gn\	8FF#/
.	8f#\	8GG#/
.	8e\J	8AA#/J
8cc#/L]	4d\	8BB/L
8b/	.	8F#/
8cc#t/xx	[4g\	8E/
8dd/J	.	8D/J
=34	=34	=34
[2ee/	8g\L]	8C#/L
.	8b\	8AA/
.	8a\	8BB/
.	8g\J	8C#/J
8ee/L]	4f#\	8D\L
8dd/	.	8A\
8ee/	[4b\	8G\
8ff#/J	.	8F#\J
=35	=35	=35
2.gg/	8b\L]	8E\L
.	8dd\	8C#\
.	8cc#\	8D\
.	8b\J	8E\J
.	8cc#\L	8AA#\L
.	8ee\	8F#\
[4ff#/	8dd\	8G#\
.	8cc#\J	8A#\J
=36	=36	=36
8ff#/L]	4dd\	8B\L
8aa/	.	8BB\
8gg/	[4b\	8C#\
8ff#/J	.	8D\J
4gg/	8b\L]	8E\L
.	8dd\	8F#\
[4gg#/	8cc#\	8E\
.	8b\J	8D\J
=37	=37	=37
8gg#/L]	4ee\	8C#\L
8bb/	.	8c#\
8aa/	[4cc#\	8d\
8gg#/J	.	8e\J
4aa/	8cc#\L]	8f#\L
.	8ee\	8g\
[4aa#/	8dd\	8f#\
.	8cc#\J	8e\J
=38	=38	=38
8aa#/L]	4ff#\	8d\L
8cccn/	.	8D\
8bb/	[4dd\	8E\
8aa#/J	.	8F#\J
4.bb/	8dd\L]	8G\L
.	8ee\J	8F#\
.	[4ff#\	8E\
8aan/	.	8D#\J
=39	=39	=39
2gg/	4ff#\]	8E\L
.	.	8Dn\
.	2ee\	8C#\
.	.	8BB\J
2ff#/	.	8AA#\L
.	.	8F#\
.	[4dd\	8B\
.	.	8An\J
=40	=40	=40
2ee/	4dd\]	8G#\L
.	.	8F#\
.	2cc#\	8G#\
.	.	8A#\J
[2dd/	.	8B\L
.	.	8BB\
.	8b\L	8C#\
.	8a\J	8D\J
=41	=41	=41
4dd/]	[2g\	8E\L
.	.	8F#\
8cc#/L	.	8G\
8b/J	.	8E\J
8a#/L	8g\L]	8F#\L
8gg/	8a#\	8E\
8ff#/	8b\	8D\
8ee/J	8cc#\J	8E\J
=42	=42	=42
4dd/	8f#\	8F#/L
.	4b\	8E/
4cc#t/xx	.	8F#/
.	8a#\	8FF#/J
[2b/	8b\	4GG/
.	4e\	.
.	.	4FF#/
.	8d#\	.
=43	=43	=43
8b/]	[2g\	4EE/
4b/	.	.
.	.	4DD/
8a#/	.	.
[2ee/	8g\]	8CC#/
.	4g\	8B\L
.	.	8A#\
.	8f#\	8An\J
=44	=44	=44
8ee/]	[2b\	8G#\L
4ee/	.	8Gn\
.	.	8F#\
8dd#/	.	8B\J
[2gg/	8b\]	8E\L
.	4b\	8e\
.	.	8d\
.	8a#\	8c#\J
=45	=45	=45
8gg/]	[2dd\	8B\L
4ff#/	.	8cn\
.	.	8c#\
8ee#/	.	8d\J
8bb/L	8dd\L]	8E#\L
16een/L	8ccn\J	8F#\
16dd#/JJ	.	.
8ee/L	[4b\	8Gn\
8gg/J	.	8En\J
=46	=46	=46
4ddn/	4b\]	8F#/L
.	.	8E/
4cc#t/xx	4a#\	8F#/
.	.	8FF#/J
8dd#/L	8an\	[2BB/
8ee/	4g\	.
8a#/	.	.
8b/J	[8f#\	.
=47	=47	=47
*^	*	*
4r	2g/	8f#\L	1BB/
.	.	8e\J	.
8r	.	4c#\	.
8a#/	.	.	.
2b/	2f#\] 2d#\	2ryy	.
==:|!;	==:|!;	==:|!;	==:|!;
*-	*-	*-	*-
!!!END: 1994/01/21/
!!!KEY: 135071331
!!!EMD: Converted from MuseData to Humdrum Dec 19, 2000, by Andreas Kornstaedt using muse2kern.
